X:130
T:Jolly Dolly Polka
C:Andy De Jarlis
M:2/4
L:1/16
Z:abc by Bruce Osborne - bosborne@kos.net
K:Bb
c=e|f2f2 g2g2|fgfd B2B2|A2cf a2a2|gag=e cdcB|!
A2c2 a2a2|gag=e cdcB|A2FA d2Ac|B2BA B2:|!
|:FE|D2F2 d2d2|D2E2 c3B|Acfa g=ecA|B2d2 FGFE|!
D2F2 d2d2|D2E2 c3B|Acfa g=ecA|B2BA B2:|!
